X:113
T:Tea Darling
M:C|
L:1/8
C:© Paul Gitlitz 1987
R:Reel
B:Giblitz Fancy, 169 Brand New Old Time Fiddle Tunes Vol. 3, Canadian Fiddle Tunes Vol 1
N:Really a question more than a title.
K:C
(3efg|"Dm"a2ae "C"gage|"Dm"f2d2d3g|a3e "C"gage| "F"fdec  "Dm"d2(3efg|!
"Dm"a2ae "C"gage|"Dm"f2d2d3e|"Am"Acde fage|1"Dm"f2d2d2:|2"Dm"f2d2d2A2|!
|:"F"DFAc "Dm"~d3e|fdec dcAF|"Am"DFAc "Dm"~d3e|"F"fage "Dm"~d3A|!
"F"DFAc "Dm"~d3e|fdec dcAF|"F"afge "C"fedc|1dfec"Dm"d3F:|2dfec"Dm"d4|]
